X:1
T:Barbara Allen
M:2/4
L:1/8
K:F
 C/2C/2 GG A| G2 EC| C/2C/2 GG A| G2 D2| F/2 F3/2 F/2 F3/2| C/2D/2 C F,2|\
 C/2C/2 D/2D/2 CA,| G,2 G,2|||
